X: 1
T:da Greenlandmans Tune
R:Jig
O:Shetland
M:6/8
K:A
d2B c2A|BcB E3|F2G A2G|FD2 D3|\
d2B c2A|BcB E3|G2A B2G|A3 A3:|
K:EMix
|:B2B B2c|d2d d2B|A2A A2F|D2E F2A|\
B2B B2c|d2d d2B|AF2 F2D|E3 E2:|
